X:166
T:Forked Deer
C:Jess Cobb (Hot Club of Nashville, Station Inn, 9-22-05)
N:Transcribed by Steve Keating
R:bluegrass
L:1/8
Q:1/4=274
M:4/4
K:C
z6 B^c | "D"de ^fg af df | 
K:D
"G"gf eg (3"A"fgf ec | "D"dc de fg af | "A"gf ed cA Bc | "D"d2 dc de fa | "G"g2 eg (3"A"fgf ec | 
"D"dB AF "G"GB AG | "A"FD EC "D"D2 Bc | de fg af df | "G"g2 eg (3"A"fgf ec | "D"dc de fg af | 
"A"gb ed cA Bc | "D"dc de fg af | "G"gf eg (3"A"fgf ec | "D"dB AF "G"GB AG | "A"FD EC "D"D2 [AG]A | 
"A"AA Ac BA Bc | AB AF EC EA | FA Ac BA (3BcB | AG FE "D"[A2D2] [A/G/]A/A | "A"A2 Ac BA Bc | 
AB AF EC EA | "D"AF AF "G"GB AG | "A"FD EC "D"D2 [A/G/]A/A | "A"A2 Ac BA Bc | 
AB AF E2 [E2C2] | FA Ac BA (3BcB | AG FE "D"[A2D2] G/A/A | "A"A2 Ac BA Bc | AB AF ED CE | 
"D"DF AF "G"GB AG | "A"FD EC D2 Bc | d2 dc de fa | g2 eg (3fgf ec | dc de fg af | 
gb ed cA Bc | dB AG FD EF | GA Bd g2 eg | (3fgf ec dB AG | FD EC (3DEF (3ABc | 
de fg af df | gf (3ga^a bg eg | (3fgf ec dc d^d | ed =c^c AG =F^F | DF Ac de fa | 
g2 eg (3fgf ec | dB AF GB AG | FD EC D2 [A2A2] | AA Ac BA Bc | Ac AF ED FE | AF ED CB, A,B, | 
CD EC DE FD | EG Bd cB Ac | eg bg a2 g2 | =f^f df Ad =cB | AG =F^F D2 DD | G/A/A Ac BA (3BcB | 
AB AF E2 [E2C2] | FA Ac BA (3BcB | AG FE DE FG | ^GA AG AG AB | =c^c ae ga =f^f | 
dA =cd ec AG | FD EC D4 | z6 Bc | de fg aA df | g2 eg (3fgf ec | dc de fg af | 
gf ed cA Bc | dB AG FE DA, | B,A, B,A, B,G, A,D | FD FG Bd AB | AG FE D2 DE | 
FA Bc de fa | g2 eg (3fgf ec | dc d/f/a bf ab | =c'^c' af ed ce | dA FB AF DF | 
GA Bd gd =f^f | cd ^GA =F^F DF | ED CE [A2D2] D[AD] | G/A/A Ac BA Bc | AB AF EC EA | 
G/A/A Ac BA (3BcB | AG FE DF BD | EG Bd cB AB | cd ef g^g ae | ga =f^f dA =cB | 
AG FE DE BA | Bd =c/^c/z z2 ze | Bc fc ef g^g | ae ga =f^f dc | d^d fd ef g^g | 
af ea/b/ za gb/c'/ | zb ac'/e'/ zc' ac' | d'c' d'/e'/e' f'e' d'b | ad' ag fd BA | 
Bd z6 | z8 | z8 | 


